X: 4
T:Barren Rocks of Aden, The
M:2/4
L:1/8
R:March
Z:<cfalt@trytel.com> www.trytel.com/~cfalt/Fiddle/The_List.abc
Q:300
K:D
d/2e/2|"D"f2f2>e|dfAd|"A7"ceA(B/2c/2)|"D"dAde|
f2f2>e|dfAd|"A7"ceA(B/2c/2)|"D"d2d :|!
f/2g/2|"D"afd(e/2f/2)|"A7"efA(e/2f/2)|gece|"D"dfA(f/2g/2)|
a>fdf|"A7"efA(e/2f/2)|gece|"D"d2d f/2g/2:|

